src/main/resources/icons/JavaUltimateIcons/icons/cdi/decorator.svg

<svg xmlns="http://www.w3.org/2000/svg" width="16" height="16" viewBox="0 0 16 16">
  <g fill="none" fill-rule="evenodd">
    <path fill="#40B6E0" fill-opacity=".6" d="M7.99963381,15 C4.1338021,14.9998021 1,11.8658779 1,8 C1,4.134 4.134,1 8,1 C11.8658779,1 14.9998021,4.1338021 15,7.99963381 C14.1643395,7.37194482 13.1256059,7 12,7 C9.23857625,7 7,9.23857625 7,12 C7,13.1256059 7.37194482,14.1643395 7.99963381,15 Z"/>
    <path fill="#231F20" fill-opacity=".7" d="M5,4.28253174 C4.53,4.74153174 4.028,4.978 3.1,5 C2.061,5.022 1,4.2794 1,3.0004 C1,1.7124 1.971,1 3.1,1 C3.94833171,1 4.54833171,1.18475342 4.9,1.55426025 L5.5162,0.836730957 C4.8293999,0.270175195 4.28826904,0.0004 3.0982,0.0004 C1.3402,0.0004 0.0002,1.3584 0.0002,3.0004 C0.0002,4.6824 1.3642,6.0004 3.0022,6.0004 C4.29284668,6.0004 5.0232,5.5934 5.6162,4.9814 C5.2054,4.51548783 5,4.28253174 5,4.28253174 Z" transform="translate(5 5)"/>
    <path fill="#9AA7B0" d="M12,8 C9.792,8 8,9.792 8,12 C8,14.208 9.792,16 12,16 C14.208,16 16,14.208 16,12 C16,9.792 14.208,8 12,8 Z M11.6,15.172 C10.02,14.976 8.8,13.632 8.8,12 C8.8,11.752 8.832,11.516 8.884,11.284 L10.8,13.2 L10.8,13.6 C10.8,14.04 11.16,14.4 11.6,14.4 L11.6,15.172 Z M14.36,14.156 C14.256,13.832 13.96,13.6 13.6,13.6 L13.2,13.6 L13.2,12.4 C13.2,12.18 13.02,12 12.8,12 L10.4,12 L10.4,11.2 L11.2,11.2 C11.42,11.2 11.6,11.02 11.6,10.8 L11.6,10 L12.4,10 C12.84,10 13.2,9.64 13.2,9.2 L13.2,9.036 C14.372,9.512 15.2,10.66 15.2,12 C15.2,12.832 14.88,13.588 14.36,14.156 Z"/>
  </g>
</svg>

<svg xmlns="http://www.w3.org/2000/svg" width="16" height="16" viewBox="0 0 16 16"><rect id="frame" width="16" height="16" fill="none"/><g fill="none" fill-rule="evenodd"><path fill="#40B6E0" fill-opacity=".6" d="M8 15a7 7 0 1 1 7-7 5 5 0 0 0-7 7z"/><path fill="#231F20" fill-opacity=".7" d="M10 9.283c-.47.459-.972.695-1.9.717-1.039.022-2.1-.72-2.1-2 0-1.288.971-2 2.1-2 .848 0 1.448.185 1.8.554l.616-.717C9.83 5.27 9.288 5 8.098 5 6.34 5 5 6.358 5 8c0 1.682 1.364 3 3.002 3 1.29 0 2.021-.407 2.614-1.019L10 9.283z"/><path fill="#9AA7B0" d="M12 8c-2.208 0-4 1.792-4 4s1.792 4 4 4 4-1.792 4-4-1.792-4-4-4zm-.4 7.172A3.195 3.195 0 0 1 8.8 12c0-.248.032-.484.084-.716L10.8 13.2v.4c0 .44.36.8.8.8v.772zm2.76-1.016a.794.794 0 0 0-.76-.556h-.4v-1.2c0-.22-.18-.4-.4-.4h-2.4v-.8h.8c.22 0 .4-.18.4-.4V10h.8c.44 0 .8-.36.8-.8v-.164c1.172.476 2 1.624 2 2.964 0 .832-.32 1.588-.84 2.156z"/></g></svg>
